X:1
T:Trip to Eddington
M:2/4
L:1/8
R:Country Dance Tune
B:R. Baldwin - London Magazine; or, Gentleman's Monthly Intelligencer (Sept. 1750, p. 421)
Z:AK/Fiddler's Companion
K:F
fc2B|AF2F|EGcB|AF2c|fc2=B|cG2F|EGDF|EC2:|
ge2d|^cA2g|faA^c|dD2g|fd2c|=BG2f|edc=B|cC2c|
fc2B|AF2F|EGcB|Acfb|af2e|fc2B|AcGB|AF3||

